X: 1092
T: Strop the Razor
R:double jig
N:"" "1st Setting"
B:O'Neill's 1092
Z:Transcribed by henrik.norbeck@mailbox.swipnet.se
M:6/8
L:1/8
K:G
D|DGG BAG|AFD FDC|DGG BAG|Add cAG|
DGG BAG|AFD F2G|FED F2G|Add cAG:|
DGG G2A|DFF F2G|DGG GFG|Add cAG|
DGG G2A|DFF F2G|FED F2G|Add cAG:|


